X:1
T:Whether  I  Live
T:Whether  I  Live
T:Copyright © CPDL
T:Copyright © CPDL
T:Copyright © CPDL
Z:Copyright © CPDL
%%score 1 ( 2 3 ) ( 4 5 )
L:1/8
Q:1/4=110
M:4/4
K:Ab
V:1 treble nm="P1"
V:2 treble nm="P2"
V:3 treble 
V:4 bass nm="P3"
V:5 bass 
V:1
"^Editor: John Henry Fowler""^(  Revision:   4 - 30 - 2008  )""^Lento." z2 z2 | %1
w: |
"^From \"English Lyrics\" -  Set 9 -  Number 4""^Words by Mary E. Coleridge" z8 | %2
w: |
"^Charles Hubert Hastings Parry" z8 |"^( 1848 - 1918 )" z8 | z8 |!p! (F A2 f) e3 C | %6
w: |||Whe- ther I live, or|
!<(! D F2!<)! d !>!c3 G |!<(! B A2!<)! F!>(! d2!>)! F2 | E6 z2 |!<(! A3 A!<)! _g2 fe | %10
w: whe- ther I die, What-|ev- er the worlds I|see,|I shall come to you|
 d>F F4"^più lento" z2 | z2!p! G2 g3 =e |!>(! c6 A2!>)! | c4 z4 | z4 z2!mf! z!<)!!<(! c | %15
w: by- and- by,|And you will|come to|me.|Who-|
"^animando" !>!e c2 _G !>!F2 E2 | e3 =A c4 | z =A =d>=e =f>f c2 | =B6 z2 || %19
w: ev- er was fool- ish,|we were wise,|We crossed the bound- a- ry|line.|
[K:A]"^rit.""^tempo primo" z8 | z2!p!!<(! _A2!<)! f3 e ||[K:Ab] d2 _G2 _c B2 A |"^rit." D8- | %23
w: |I saw my|soul look out of your|eyes,|
 D2 z2 z4 |!p! z2"^ad lib." G2 g3 =e | c7 G | A8 | z8 |] %28
w: _|You saw your|soul in|mine.||
V:2
 z!>(! (!>![DG]2!>)! [CA]) | [DAd]6 z2 | z4 z (!>![_G,C]2 [F,D]) | [=G,DF]6 z2 | z8 | %5
 (!tenuto![A,DF]2 !tenuto![A,DF]2) (!tenuto![A,CE]2 !tenuto![A,CE]2) | %6
 (!tenuto![A,DA]2 !tenuto![A,DA]2) (!tenuto![B,=EA]2 !tenuto![B,EA]2) | %7
 (!tenuto![A,F]2 !tenuto![A,DF]2-) [A,DF]2 ([=A,DF]2 | %8
 !tenuto![B,DE]2) !>![DEd]2 (!tenuto![CEc]2 !tenuto![CB]2) | %9
 (!tenuto![A,DA]2 !tenuto![A,DA]2) (!tenuto![A,EA]2 !tenuto![A,EA]2) | %10
 [FAB]2 [FAB]2 [FA=B]2 [FAB]2 |"^più lento" [C=EGc]6 z2 | [CFAc]6 z2 | (=E G2 =e) (!>!=d3 E) | %14
 F =A2 f _e4- | e2 !tenuto![B,E]2 !tenuto![B,=D]2 !tenuto![B,E]2 | %16
 !>![E=Ae]2 (!tenuto![=A,EA]2 !tenuto![CGc]2 !tenuto![CGc]2) | %17
 !>![C^Fc]2!<(! (!tenuto![^F,CF]2 !tenuto![=F,C=F]2!<)! !tenuto![CFc]2) | %18
 [=B,F=B]2 !>![B,B]2- ([B,=EB] [E=e]2 [=d=d']) || %19
[K:A]!f!"^rit. e dim." (!>![ceac']3 [Aa] [Ece]2) [F=c^df]2 | g6[K:bass] [=F,_C_D]2 || %21
[K:Ab] (!tenuto![_G,_CD]2 !tenuto![G,CD]2) (!tenuto![A,CD]2 !tenuto![A,CD]2) | %22
 (!tenuto![A,B,D]2 !tenuto![A,B,D]2) (!tenuto![_G,DE]2 !tenuto![G,DE]2) | %23
!<(! (!tenuto![A,DF]2 !tenuto![A,DF]2) (!tenuto![B,DFB]2!<)! !tenuto![B,DFB]2) | %24
!p!"^colla voce" [G,B,=E]6 [CEG-]2 | [CG]2 F2 [A,F]2 [G,E]2 | [A,C]!<(! E2 c!<)!!>(! !>![=DA=B]4- | %27
 [DB]!>)!([E-c] [Ece]4) z2 |] %28
V:3
 x4 | x8 | x8 | x8 | x8 | x8 | x8 | x8 | x8 | x8 | x8 | x8 | x8 | x4 [=D=EF]2 [DEF] z | %14
 C2 F2 [_EB]2 [EB]2 | [EB]2 x2 x4 | x8 | x8 | x8 ||[K:A] x8 | [^EB^c]6[K:bass] x2 ||[K:Ab] x8 | %22
 x8 | x8 | x8 | C2- [A,-C]2 D4 | x8 | A2- A4 x2 |] %28
V:4
!mf! z!>(! (!>![=E,B,]2!>)! [F,A,]) |!p! B,,.F,.B,.F !>!F4- | F2 x2!p! x x2 x | %3
 E,,.B,,.G,.D !>!D4- | D6!pp! z2 | %5
 (!tenuto![A,,D,F,]2 !tenuto![A,,D,F,]2) (!tenuto![_G,,A,,E,]2 !tenuto![G,,A,,E,]2) | %6
!<(! (!tenuto![F,,A,,D,]2 !tenuto![F,,A,,D,]2)!<)! !>![C,,C,]4 | ([D,,D,]4 [F,,F,]4) | %8
 z2 B,2"^cresc." [E,A,]2 _G,2 | %9
 (!tenuto![B,,F,]2 !tenuto![B,,F,]2) (!tenuto![C,E,]2!<(! !tenuto![C,_G,]2) | %10
 [D,A,B,]2 [D,A,B,]2 [=D,A,=B,]2!<)! [D,A,B,]2 |!pp! C,,.G,,.C,"^colla voce".G, !>!B,4 | %12
 F,,.C,.F,.A, =D4 |!pp! ([C,,,C,,]2 !tenuto![C,G,C]2) (!tenuto![B,,=E,G,]2 !tenuto![B,,E,G,]2) | %14
!<(! (!tenuto![=A,,F,]2 !tenuto![A,,F,C]2)!<)! (!tenuto![G,,C,_E,B,]2 !tenuto![G,,C,E,B,]2) | %15
!mf! !>![_G,,C,=E,B,]2"^animando" (!tenuto![G,,C,E,]2 !tenuto![G,,C,=D,]2 !tenuto![G,,C,E,]2) | %16
 !>![F,,,F,,]2 (!tenuto![F,,C,F,]2 !tenuto![E,,=A,,C,]2 !tenuto![E,,A,,C,]2) | %17
 !>![=D,,,=D,,]2"^cresc."!<(! (!tenuto![D,,=A,,=D,]2 !tenuto![D,,A,,D,]2!<)! !tenuto![D,,A,,D,]2) | %18
!f! !tenuto![G,,,G,,]2!<(! !tenuto![G,,=D,G,]2 !tenuto![^G,,,^G,,]2!<)! !tenuto![G,,=E,=B,]2 || %19
[K:A] F,,.E,.A,.C C2 [F,A,=C]2 | C,,.G,,.C,.G, C2 [_D,,_D,]2 || %21
[K:Ab] !tenuto![D,,D,]2 !tenuto![D,,D,]2 !tenuto![F,,D,]2 !tenuto![F,,D,]2 | %22
 !tenuto![B,,,B,,]2 !tenuto![B,,D,]2"^rit." !tenuto![B,,D,E,]2 !tenuto![B,,D,E,]2 | %23
!<(! (!tenuto![A,,D,F,]2 !tenuto![A,,D,F,]2) (!tenuto![=G,,D,F,]2!<)! !tenuto![=G,,D,F,]2) | %24
 C,,.G,,.C,.G,!pp! !>!B,4 | F,,.C,.F,.C (B,,2 E,2) | E,2!<(! x2!<)!!>(! !>![F,A,=B,]4- | %27
 [F,B,]!>)!!pp![E,C]- [A,C]4 z2 |] %28
V:5
 x4 | B,,,6 z2 | z4 z (!>![=A,,E,]2 [B,,D,]) | [E,,,E,,]6 z2 | x8 | x8 | x8 | x8 | [=G,,E,]4 A,,4 | %9
 x8 | x8 | [C,,,C,,]2 x2 x4 | [F,,,F,,]2 x2 x4 | x8 | x8 | x8 | x8 | x8 | x8 || %19
[K:A] [_E,,,F,,]2 x2 A,,4 | [^C,,,^C,,]2 x2 A,,4 ||[K:Ab] x8 | x8 | x8 | [C,,,C,,]2 x2 x4 | %25
 [F,,,F,,]2 x2 E,,4 | [A,,,A,,]3 z x4 | A,2- E,4 x2 |] %28

